Obsidian-SemiLight/actions/16s/node-type-smooth.svg

<svg viewBox="0 0 16 16" xmlns="http://www.w3.org/2000/svg"><path d="m1.0039062 2a7 9 0 0 0 6 8.898438v-1.0195318a6 8 0 0 1 -5-7.8789062zm12.9999998 0a6 8 0 0 1 -4.9999998 7.8867188v1.0097652a7 9 0 0 0 5.9999998-8.8945309zm-10.4999998 8a1.5 1.5 0 0 0 -1.5 1.5 1.5 1.5 0 0 0 1.5 1.5 1.5 1.5 0 0 0 1.4140626-1h2.0820312v-1h-2.0820312a1.5 1.5 0 0 0 -1.4140626-1zm9.9999998 0a1.5 1.5 0 0 0 -1.412109 1h-1.091797v1h1.091797a1.5 1.5 0 0 0 1.412109 1 1.5 1.5 0 0 0 1.5-1.5 1.5 1.5 0 0 0 -1.5-1.5zm-9.9999998 1a.500002.5 0 0 1 .4960938.441406v.121094a.500002.5 0 0 1 -.4960938.4375.500002.5 0 0 1 -.5-.5.500002.5 0 0 1 .5-.5zm9.9999998 0a.500002.5 0 0 1 .5.5.500002.5 0 0 1 -.5.5.500002.5 0 0 1 -.5-.5.500002.5 0 0 1 .5-.5z" fill="#4d4d4d"/><path d="m6 9v4h4v-4zm1 1h2v2h-2z" fill="#3daee9"/></svg>

<svg xmlns="http://www.w3.org/2000/svg" viewBox="0 0 16 16">
  <defs id="defs3051">
    <style type="text/css" id="current-color-scheme">
      .ColorScheme-Text {
        color:#4d4d4d;
      }
      .ColorScheme-Highlight {
        color:#3daee9;
      }
      </style>
  </defs>
  <path 
        style="fill:currentColor;fill-opacity:1;stroke:none"
        d="M 1.0039062 2 A 7 9 0 0 0 7.0039062 10.898438 L 7.0039062 9.8789062 A 6 8 0 0 1 2.0039062 2 L 1.0039062 2 z M 14.003906 2 A 6 8 0 0 1 9.0039062 9.8867188 L 9.0039062 10.896484 A 7 9 0 0 0 15.003906 2.0019531 L 14.003906 2 z M 3.5039062 10 A 1.5 1.5 0 0 0 2.0039062 11.5 A 1.5 1.5 0 0 0 3.5039062 13 A 1.5 1.5 0 0 0 4.9179688 12 L 7 12 L 7 11 L 4.9179688 11 A 1.5 1.5 0 0 0 3.5039062 10 z M 13.503906 10 A 1.5 1.5 0 0 0 12.091797 11 L 11 11 L 11 12 L 12.091797 12 A 1.5 1.5 0 0 0 13.503906 13 A 1.5 1.5 0 0 0 15.003906 11.5 A 1.5 1.5 0 0 0 13.503906 10 z M 3.5039062 11 A 0.500002 0.5 0 0 1 4 11.441406 L 4 11.5625 A 0.500002 0.5 0 0 1 3.5039062 12 A 0.500002 0.5 0 0 1 3.0039062 11.5 A 0.500002 0.5 0 0 1 3.5039062 11 z M 13.503906 11 A 0.500002 0.5 0 0 1 14.003906 11.5 A 0.500002 0.5 0 0 1 13.503906 12 A 0.500002 0.5 0 0 1 13.003906 11.5 A 0.500002 0.5 0 0 1 13.503906 11 z "
        class="ColorScheme-Text"
        />
  <path
        style="fill:currentColor;fill-opacity:1;stroke:none"
        d="m 6,9 0,4 4,0 0,-4 z m 1,1 2,0 0,2 -2,0 z"
        class="ColorScheme-Highlight"
      />
</svg>
